X:1
T:Title
%%score { ( 1 3 ) | 2 }
L:1/8
Q:1/4=90
M:6/8
K:Db
V:1 treble nm="Grand Piano"
V:3 treble 
V:2 bass 
V:1
 F_F=F [FA]2 [F=A] | [FB]2 F F3 | G2 A [Gc]2 [GB] | G6 | F_F=F [FA]2 [F=A] | %5
w: J.~B.~Herbert * * * *|||||
 [FB]2 [DF] [Fd]2 [DFB] | [CFA]2 [A,F] [B,_F=G]2 [CFA] |[M:5/8] F-F- F3 |[M:1/8] F/F/ | %9
w: ||||
[M:3/4] z2 z c z2 | [Fd]2 [FA] [FA]2 [Fd] | [Gc][GB] [GA] [CG]2 [CA] | [EG]2 [DF] [DF]2 [FA] | %13
w: ||||
 [Fd]2 [FA][FB] [Gc][Ad] | e2 B B2 d | c[CE] [CF] [CG]2 C | z2 z B2 [DB] | [CA][CE] [DF] [CG]2 C | %18
w: |||||
[M:5/8] D-D- D3 |] %19
w: |
V:2
 [D,A,D][D,=G,D][D,A,D] [D,D]2 [D,D] | [D,D]2 [D,A,D] [D,A,D]3 | %2
 [E,A,C]2 [E,A,C] [A,,A,]2 [A,,A,] | [E,A,C]6 | [D,A,D][D,=G,D][D,A,D] [D,D]2 [D,D] | %5
 [D,D]2 [D,A,] [B,,B,]2 B,, | C,2 C, C,2 C, |[M:5/8] [F,A,]-[F,A,]- [F,A,]3 | %8
[M:1/8] [D,A,D]/[D,A,D]/ |[M:3/4] [E,A,C]2 [E,A,C] [A,,A,]2 [A,,A,] | [D,A,]2 [D,D] [D,D]2 [D,A,] | %11
 [E,A,][E,B,] [E,C] [A,,E,]2 [A,,A,] | [D,A,]2 [D,A,] [D,A,]2 [D,A,] | %13
 [D,A,]2 [D,D][D,D] [E,C][F,_C] | [G,B,G]2 [G,DG] [G,DG]2 [=G,B,E] | %15
 [A,E][A,,A,] [A,,A,] [A,,E,]2 [A,,G,A,] | [B,,F,]3 [=G,,_F,]2 [G,,F,] | %17
 [A,,E,][A,,A,] [A,,A,] [A,,E,]2 [A,,G,A,] |[M:5/8] [D,F,A,]-[D,F,A,]- [D,F,A,]3 |] %19
V:3
 x6 | x6 | x6 | x6 | x6 | x6 | x6 |[M:5/8] x5 |[M:1/8] x |[M:3/4] G2 AG- [GB][Gc] | x6 | x6 | x6 | %13
 x6 | x6 | x6 | D6 | x6 |[M:5/8] x5 |] %19

